X: 1351
T: Tie the Bonnet
R:Reel
N:Collected by Beamish
B:O'Neill's 1351
Z:Transcribed by Trish O'Neil
M:C|
L:1/8
K:A
A2(Ag) fdec|A2(Ac) BGGB|A2(Ag) fdef|gfge dBGB:|
a2(af) gfed|cAeA cAce|a2(af) gfef|gfge dBGB|
a2(af) gfed|cAeA cAce|afge fdef|gfge dBGB|]


